icons/type-icons/icons/text-x-rpm-spec.svg

<?xml version="1.0" encoding="UTF-8"?><svg width="22" height="22" version="1.1" xmlns="http://www.w3.org/2000/svg">
 <g id="layer1" transform="translate(-326 -534.36)" fill="#cf000f">
  <rect id="rect5105" x="329" y="537.36" width="8" height="1" stroke-width="6"/>
  <rect id="rect5107" x="329" y="541.36" width="16" height="1" stroke-width="6"/>
  <rect id="rect5109" x="329" y="545.36" width="6" height="1" stroke-width="6"/>
  <rect id="rect5111" x="329" y="548.36" width="4" height="1" stroke-width="6"/>
  <rect id="rect5113" x="329" y="552.36" width="6" height=".99998" stroke-width="6"/>
  <path id="rect4139" transform="translate(326 534.36)" d="m12 11v4h-1l4 4 4-4h-1v-4h-6zm1 1h4v3h0.58398l-2.584 2.584-2.584-2.584h0.58398v-3z"/>
 </g>
</svg>

<?xml version="1.0" encoding="UTF-8" standalone="no"?>

<!-- Created with Inkscape (http://www.inkscape.org/) -->
<svg width="22" version="1.1" xmlns="http://www.w3.org/2000/svg" height="22" xmlns:inkscape="http://www.inkscape.org/namespaces/inkscape">
 <defs id="defs3871"/>
 <metadata id="metadata3874"/>
 <g inkscape:label="Capa 1" inkscape:groupmode="layer" id="layer1" transform="matrix(1 0 0 1 -326 -534.3622)">
  <rect width="8" x="329" y="537.36218" height="1" style="fill:#cf000f;stroke-width:6" id="rect5105"/>
  <rect width="16" x="329" y="541.36218" height="1" style="fill:#cf000f;stroke-width:6" id="rect5107"/>
  <rect width="6" x="329" y="545.36218" height="1" style="fill:#cf000f;stroke-width:6" id="rect5109"/>
  <rect width="4" x="329" y="548.36218" height="1" style="fill:#cf000f;stroke-width:6" id="rect5111"/>
  <rect width="6" x="329" y="552.36218" height="0.999983" style="fill:#cf000f;stroke-width:6" id="rect5113"/>
  <path style="fill:#cf000f" id="rect4139" d="M 12 11 L 12 12 L 12 15 L 11 15 L 15 19 L 19 15 L 18 15 L 18 12 L 18 11 L 12 11 z M 13 12 L 17 12 L 17 15 L 17.583984 15 L 15 17.583984 L 12.416016 15 L 13 15 L 13 12 z " transform="matrix(1 0 0 1 326 534.3622)"/>
 </g>
</svg>
